common/src/main/resources/icons/plugins/markdown/Export_pdf.svg

<svg xmlns="http://www.w3.org/2000/svg" width="16" height="16" fill="#D73736" fill-rule="evenodd" data-big="true" viewBox="0 0 24 24"><path d="M11.43 10.94c-.23.74-.56 1.53-1.01 2.4-.2.38-.42.74-.5 1.04l.11-.04c1.27-.49 2.47-.77 3.34-.93-.15-.1-.29-.21-.41-.32-.6-.51-1.12-1.25-1.53-2.15m6.48 3.81c-.17.19-.47.3-.91.3-.76 0-2-.23-3-.74-1.72.19-3 .42-4.03.75-.05.02-.11.04-.18.07-1.24 2.12-2.16 3.07-2.97 3.07-.16 0-.32-.04-.44-.11l-.48-.31-.03-.05a.9.9 0 0 1-.05-.54c.11-.53.68-1.37 1.88-2.12.19-.14.49-.3.89-.49.3-.52.62-1.13.96-1.8.51-1.03.83-2.05 1.08-2.93v-.01c-.37-1.21-.59-1.94-.22-3.27.09-.38.42-.77.79-.77h.24c.23 0 .45.08.61.24.66.66.35 2.27.02 3.6-.02.06-.03.11-.04.14.4 1.13.97 2.04 1.6 2.56.26.2.55.4.87.58.45-.05.88-.07 1.29-.07 1.24 0 1.99.22 2.28.69.1.16.15.35.12.55-.01.25-.1.48-.28.66M19 3H5c-1.11 0-2 .89-2 2v14a2 2 0 0 0 2 2h14a2 2 0 0 0 2-2V5a2 2 0 0 0-2-2m-1.5 11.04c-.1-.1-.5-.35-1.9-.35-.07 0-.14 0-.23.1.73.32 1.44.51 1.9.51.07 0 .13-.01.19-.02h.04c.05-.02.08-.03.09-.13-.02-.03-.04-.07-.09-.11M8.33 15.5c-.21.12-.38.23-.48.31-.71.65-1.16 1.31-1.21 1.69.45-.15 1.04-.81 1.69-2m3.02-6.91.05-.04c.07-.32.1-.6.16-.82l.03-.16c.1-.57.08-.86-.09-1.1l-.15-.05c-.02.03-.05.08-.07.12-.17.42-.16 1.15.07 2.05"/></svg>

<!--
  - The MIT License (MIT)
  -
  - Copyright (c) 2015-2024 Elior "Mallowigi" Boukhobza
  -
  - Permission is hereby granted, free of charge, to any person obtaining a copy
  - of this software and associated documentation files (the "Software"), to deal
  - in the Software without restriction, including without limitation the rights
  - to use, copy, modify, merge, publish, distribute, sublicense, and/or sell
  - copies of the Software, and to permit persons to whom the Software is
  - furnished to do so, subject to the following conditions:
  -
  - The above copyright notice and this permission notice shall be included in all
  - copies or substantial portions of the Software.
  -
  - THE SOFTWARE IS PROVIDED "AS IS", WITHOUT WARRANTY OF ANY KIND, EXPRESS OR
  - IMPLIED, INCLUDING BUT NOT LIMITED TO THE WARRANTIES OF MERCHANTABILITY,
  - FITNESS FOR A PARTICULAR PURPOSE AND NONINFRINGEMENT. IN NO EVENT SHALL THE
  - AUTHORS OR COPYRIGHT HOLDERS BE LIABLE FOR ANY CLAIM, DAMAGES OR OTHER
  - LIABILITY, WHETHER IN AN ACTION OF CONTRACT, TORT OR OTHERWISE, ARISING FROM,
  - OUT OF OR IN CONNECTION WITH THE SOFTWARE OR THE USE OR OTHER DEALINGS IN THE
  - SOFTWARE.
  -->


<svg data-big="true" xmlns="http://www.w3.org/2000/svg" version="1.1" width="16px" height="16px" fill="#D73736"
     fill-rule="evenodd"
     viewBox="0 0 24 24">
  <path
    d="M11.43,10.94C11.2,11.68 10.87,12.47 10.42,13.34C10.22,13.72 10,14.08 9.92,14.38L10.03,14.34V14.34C11.3,13.85 12.5,13.57 13.37,13.41C13.22,13.31 13.08,13.2 12.96,13.09C12.36,12.58 11.84,11.84 11.43,10.94M17.91,14.75C17.74,14.94 17.44,15.05 17,15.05C16.24,15.05 15,14.82 14,14.31C12.28,14.5 11,14.73 9.97,15.06C9.92,15.08 9.86,15.1 9.79,15.13C8.55,17.25 7.63,18.2 6.82,18.2C6.66,18.2 6.5,18.16 6.38,18.09L5.9,17.78L5.87,17.73C5.8,17.55 5.78,17.38 5.82,17.19C5.93,16.66 6.5,15.82 7.7,15.07C7.89,14.93 8.19,14.77 8.59,14.58C8.89,14.06 9.21,13.45 9.55,12.78C10.06,11.75 10.38,10.73 10.63,9.85V9.84C10.26,8.63 10.04,7.9 10.41,6.57C10.5,6.19 10.83,5.8 11.2,5.8H11.44C11.67,5.8 11.89,5.88 12.05,6.04C12.71,6.7 12.4,8.31 12.07,9.64C12.05,9.7 12.04,9.75 12.03,9.78C12.43,10.91 13,11.82 13.63,12.34C13.89,12.54 14.18,12.74 14.5,12.92C14.95,12.87 15.38,12.85 15.79,12.85C17.03,12.85 17.78,13.07 18.07,13.54C18.17,13.7 18.22,13.89 18.19,14.09C18.18,14.34 18.09,14.57 17.91,14.75M19,3H5C3.89,3 3,3.89 3,5V19A2,2 0 0,0 5,21H19A2,2 0 0,0 21,19V5C21,3.89 20.1,3 19,3M17.5,14.04C17.4,13.94 17,13.69 15.6,13.69C15.53,13.69 15.46,13.69 15.37,13.79C16.1,14.11 16.81,14.3 17.27,14.3C17.34,14.3 17.4,14.29 17.46,14.28H17.5C17.55,14.26 17.58,14.25 17.59,14.15C17.57,14.12 17.55,14.08 17.5,14.04M8.33,15.5C8.12,15.62 7.95,15.73 7.85,15.81C7.14,16.46 6.69,17.12 6.64,17.5C7.09,17.35 7.68,16.69 8.33,15.5M11.35,8.59L11.4,8.55C11.47,8.23 11.5,7.95 11.56,7.73L11.59,7.57C11.69,7 11.67,6.71 11.5,6.47L11.35,6.42C11.33,6.45 11.3,6.5 11.28,6.54C11.11,6.96 11.12,7.69 11.35,8.59Z"/>
</svg>
